rospo-icon-theme-classic-common/22x22/apps/com.github.bartzaalberg.bookmark-manager.svg

<svg height="22" width="22" xmlns="http://www.w3.org/2000/svg"><g transform="translate(-1 1)"><path d="m2 18v .5c0 .554.446 1 1 1h18c .554 0 1-.446 1-1v-.5c0 .554-.446 1-1 1h-18c-.554 0-1-.446-1-1z" opacity=".2"/><rect fill="#4f4f4f" height="18" rx="1" width="20" x="2" y="1"/><path d="m3 1c-.554 0-1 .446-1 1v .5c0-.554.446-1 1-1h18c .554 0 1 .446 1 1v-.5c0-.554-.446-1-1-1z" fill="#fff" opacity=".1"/><path d="m6 3.5v1h-.5c-.831 0-1.5.669-1.5 1.5s.669 1.5 1.5 1.5h.5v1h-1.9082c.206.582.754 1 1.4082 1h .5v1h1v-1h .5c.831 0 1.5-.669 1.5-1.5s-.669-1.5-1.5-1.5h-.5v-1h1.9082c-.206-.582-.754-1-1.408-1h-.5v-1h-1zm-.5 2h .5v1h-.5c-.277 0-.5-.223-.5-.5s.223-.5.5-.5zm1.5 2h .5c.277 0 .5.223.5.5s-.2233.513-.5.5h-.5zm4 2v1h6v-1z" opacity=".2"/><path d="m6 3v1h-.5c-.831 0-1.5.669-1.5 1.5s.669 1.5 1.5 1.5h.5v1h-1.9082c.206.582.754 1 1.4082 1h .5v1h1v-1h .5c.831 0 1.5-.669 1.5-1.5s-.669-1.5-1.5-1.5h-.5v-1h1.9082c-.206-.582-.754-1-1.408-1h-.5v-1h-1zm-.5 2h .5v1h-.5c-.277 0-.5-.223-.5-.5s.223-.5.5-.5zm1.5 2h .5c.277 0 .5.223.5.5s-.2233.513-.5.5h-.5zm4 2v1h6v-1z" fill="#fff"/></g><g transform="matrix(.5 0 0 .5 -1 -.5)"><circle cx="34" cy="33" fill="#1396ed" r="12"/><path d="m34 37.609-4.326 2.391.826-5.065-3.5-3.587 4.837-.739 2.163-4.609 2.163 4.609 4.837.739-3.5 3.587.826 5.065z" fill="#fff"/></g></svg>

<svg xmlns="http://www.w3.org/2000/svg" width="22" height="22" version="1">
 <g transform="translate(-1,1)">
  <path d="M 2,18 V 18.5 C 2,19.054 2.446,19.5 3,19.5 H 21 C 21.554,19.5 22,19.054 22,18.5 V 18 C 22,18.554 21.554,19 21,19 H 3 C 2.446,19 2,18.554 2,18 Z" style="opacity:0.2"/>
  <rect width="20" height="18" x="2" y="1" rx="1" ry="1" style="fill:#4f4f4f"/>
  <path d="M 3,1 C 2.446,1 2,1.446 2,2 V 2.5 C 2,1.946 2.446,1.5 3,1.5 H 21 C 21.554,1.5 22,1.946 22,2.5 V 2 C 22,1.446 21.554,1 21,1 Z" style="opacity:0.1;fill:#ffffff"/>
  <path d="M 6,3.5 V 4.5 H 5.5 C 4.669,4.5 4,5.169 4,6 4,6.831 4.669,7.5 5.5,7.5 H 6 V 8.5 H 4.0918 C 4.2978,9.082 4.8458,9.5 5.5,9.5 H 6 V 10.5 H 7 V 9.5 H 7.5 C 8.331,9.5 9,8.831 9,8 9,7.169 8.331,6.5 7.5,6.5 H 7 V 5.5 H 8.9082 C 8.7022,4.918 8.1542,4.5 7.5002,4.5 H 7.0002 V 3.5 H 6.0002 Z M 5.5,5.5 H 6 V 6.5 H 5.5 C 5.223,6.5 5,6.277 5,6 5,5.723 5.223,5.5 5.5,5.5 Z M 7,7.5 H 7.5 C 7.777,7.5 8,7.723 8,8 8,8.277 7.7767,8.513 7.5,8.5 H 7 Z M 11,9.5 V 10.5 H 17 V 9.5 Z" style="opacity:0.2"/>
  <path d="M 6,3 V 4 H 5.5 C 4.669,4 4,4.669 4,5.5 4,6.331 4.669,7 5.5,7 H 6 V 8 H 4.0918 C 4.2978,8.582 4.8458,9 5.5,9 H 6 V 10 H 7 V 9 H 7.5 C 8.331,9 9,8.331 9,7.5 9,6.669 8.331,6 7.5,6 H 7 V 5 H 8.9082 C 8.7022,4.418 8.1542,4 7.5002,4 H 7.0002 V 3 H 6.0002 Z M 5.5,5 H 6 V 6 H 5.5 C 5.223,6 5,5.777 5,5.5 5,5.223 5.223,5 5.5,5 Z M 7,7 H 7.5 C 7.777,7 8,7.223 8,7.5 8,7.777 7.7767,8.013 7.5,8 H 7 Z M 11,9 V 10 H 17 V 9 Z" style="fill:#ffffff"/>
 </g>
 <g transform="matrix(0.5,0,0,0.5,-1,-0.5)">
  <circle style="fill:#1396ed" cx="34" cy="33" r="12"/>
  <path style="fill:#ffffff" d="M 34,37.609 29.674,40 30.5,34.935 27,31.348 31.837,30.609 34,26 36.163,30.609 41,31.348 37.5,34.935 38.326,40 Z"/>
 </g>
</svg>
